X: 1574
T: Perdebâzım Gerçi Oldun...
C: Ahmet Avni Konuk
O: Turkey
F: http://compmusic.upf.edu/node/140
N: suzinak-zirgule--kupe--devrirevan--perdebazim--ahmet_avni_konuk
N: makam= suzinak-zirgule
N: form= kupe
N: usul= devrirevan = 14/8
M: 14/8
L: 1/16
K: C _1/4B _7/8e _7/8A ^f
Q: 1/4=102
%%MIDI tuningsystem comma53
c4 dedc cBBc BAG2 A2Bc dcBA G2z2  | 
w:  Per de *  bâ *  *  *  *  *  *  *  zım   | 
dcB2 c2de dcBc dec2 d4 d6z2  | d4 e2f4e2 d2g4=a_7/8b agfe fed2  | 
w:  ger *  *  çi  ol *  *  *  *  *  *  *  dun   |  tür lü  tür *  *  lü   | 
d2e2 d2=a2 gffe edcd efed d6z2  | \
w:  nağ *  *  *  *  *  me *  *  *  sâz    | 
d2g2 g2g2 f=ag4f2 g2_b2 a2ag g2{a}gf  | 
w:  Sû *  zi nâ *  *  *  kım   | 
fgf2 e2e2 f2e2 d2d2 e2ed dcBd c2z2  | \
w:  per *  *  de  i  *  *  *  Zir  | 
G4 A2B3cBA G2d2 c2de fedc B2z2  | 
w:  gü le yi  *  *  *  *  gös  | 
B2A2 G2dc cBBA AGG2 B2AG G6z2  | |


